polymer/images/features4.svg

<svg width="112" height="112" viewBox="0 0 112 112" fill="none" xmlns="http://www.w3.org/2000/svg">
<path d="M56.0839 110.949C74.6226 110.949 89.6511 95.9133 89.6511 77.3664C89.6511 58.8194 74.6226 43.7842 56.0839 43.7842C37.5452 43.7842 22.5166 58.8194 22.5166 77.3664C22.5166 95.9133 37.5452 110.949 56.0839 110.949Z" fill="url(#paint0_linear)" stroke="white" stroke-miterlimit="10" stroke-linecap="round" stroke-linejoin="round"/>
<path d="M111.193 34.5391C111.193 49.5536 101.391 62.1904 87.8583 66.5413C84.6172 67.5672 81.1741 68.1401 77.6074 68.1401C69.4036 68.1401 61.8996 65.227 56.0762 60.3033C51.4429 56.4467 47.835 51.2759 45.8664 45.3675C44.6763 41.964 44.0625 38.3096 44.0625 34.5353C44.0625 24.1975 48.737 14.9229 56.0799 8.77113C61.9034 3.92981 69.4073 0.975586 77.611 0.975586C96.1406 0.97933 111.193 15.9976 111.193 34.5391Z" fill="url(#paint1_linear)" stroke="white" stroke-miterlimit="10" stroke-linecap="round" stroke-linejoin="round"/>
<path d="M68.1309 34.539C68.1309 38.3132 67.5171 41.9638 66.327 45.3711C64.3172 51.2795 60.7505 56.4091 56.076 60.3069C50.2525 65.1894 42.7486 68.1436 34.5449 68.1436C30.9782 68.1436 27.5313 67.6119 24.3351 66.5448C10.8019 62.2352 1 49.5609 1 34.5427C1 15.9974 16.0078 0.98291 34.5449 0.98291C42.7449 0.98291 50.2525 3.93713 56.076 8.77845C63.4563 14.9303 68.1309 24.2011 68.1309 34.539Z" fill="url(#paint2_linear)" stroke="white" stroke-miterlimit="10" stroke-linecap="round" stroke-linejoin="round"/>
<path d="M87.8579 66.5418C84.6168 67.5677 81.1737 68.1406 77.607 68.1406C69.4033 68.1406 61.8993 65.2276 56.0758 60.3039C50.2523 65.1864 42.7485 68.1406 34.5447 68.1406C30.978 68.1406 27.5311 67.6089 24.335 66.5418C27.737 56.4885 35.7349 48.6143 45.866 45.3718C49.066 44.3458 52.5091 43.7729 56.0758 43.7729C59.6425 43.7729 63.0895 44.3458 66.3268 45.3718C76.458 48.6143 84.4559 56.5334 87.8579 66.5418Z" fill="url(#paint3_linear)" stroke="white" stroke-miterlimit="10" stroke-linecap="round" stroke-linejoin="round"/>
<path d="M111.193 34.5391C111.193 49.5536 101.391 62.1904 87.8583 66.5413C84.6172 67.5672 81.1741 68.1401 77.6074 68.1401C69.4036 68.1401 61.8996 65.227 56.0762 60.3033C51.4429 56.4467 47.8351 51.2759 45.8253 45.3675C44.6763 41.964 44.0625 38.3096 44.0625 34.5353C44.0625 24.1975 48.737 14.9229 56.0799 8.77113C61.9034 3.92981 69.4073 0.975586 77.611 0.975586C96.1406 0.97933 111.193 15.9976 111.193 34.5391Z" fill="url(#paint4_linear)" stroke="white" stroke-miterlimit="10" stroke-linecap="round" stroke-linejoin="round"/>
<path d="M87.8582 66.5421C84.6171 67.568 81.174 68.1409 77.6073 68.1409C69.4035 68.1409 61.8996 65.2279 56.0761 60.3042C51.4428 56.4476 47.835 51.2768 45.8252 45.3683C49.0663 44.3424 52.5094 43.7695 56.0761 43.7695C70.8406 43.7733 83.3483 53.2912 87.8582 66.5421Z" fill="url(#paint5_linear)" stroke="white" stroke-miterlimit="10" stroke-linecap="round" stroke-linejoin="round"/>
<path d="M68.1311 34.5392C68.1311 38.3134 67.5173 41.964 66.3272 45.3713C64.3174 51.2797 60.7507 56.4093 56.0762 60.3071C51.4429 56.4505 47.8351 51.2797 45.8253 45.3713C44.6763 41.9677 44.0625 38.3134 44.0625 34.5392C44.0625 24.2013 48.737 14.9267 56.0799 8.7749C63.4566 14.9305 68.1311 24.2013 68.1311 34.5392Z" fill="url(#paint6_linear)" stroke="white" stroke-miterlimit="10" stroke-linecap="round" stroke-linejoin="round"/>
<path d="M66.3271 45.3718C64.3173 51.2802 60.7506 56.4098 56.0761 60.3076C51.4428 56.451 47.835 51.2802 45.8252 45.3718C49.0251 44.3458 52.5094 43.7729 56.0761 43.7729C59.6428 43.7729 63.0897 44.3458 66.3271 45.3718Z" fill="url(#paint7_linear)" stroke="white" stroke-miterlimit="10" stroke-linecap="round" stroke-linejoin="round"/>
<defs>
<linearGradient id="paint0_linear" x1="56.0839" y1="43.7842" x2="56.0839" y2="110.949" gradientUnits="userSpaceOnUse">
<stop/>
<stop offset="1" stop-color="#0047FF"/>
</linearGradient>
<linearGradient id="paint1_linear" x1="77.6279" y1="0.975586" x2="77.6279" y2="68.1401" gradientUnits="userSpaceOnUse">
<stop/>
<stop offset="1" stop-color="#0047FF"/>
</linearGradient>
<linearGradient id="paint2_linear" x1="34.5654" y1="0.98291" x2="34.5654" y2="68.1436" gradientUnits="userSpaceOnUse">
<stop/>
<stop offset="1" stop-color="#0047FF"/>
</linearGradient>
<linearGradient id="paint3_linear" x1="56.0964" y1="43.7729" x2="56.0964" y2="68.1406" gradientUnits="userSpaceOnUse">
<stop/>
<stop offset="1" stop-color="#0047FF"/>
</linearGradient>
<linearGradient id="paint4_linear" x1="77.6279" y1="0.975586" x2="77.6279" y2="68.1401" gradientUnits="userSpaceOnUse">
<stop/>
<stop offset="1" stop-color="#0047FF"/>
</linearGradient>
<linearGradient id="paint5_linear" x1="66.8417" y1="43.7695" x2="66.8417" y2="68.1409" gradientUnits="userSpaceOnUse">
<stop/>
<stop offset="1" stop-color="#0047FF"/>
</linearGradient>
<linearGradient id="paint6_linear" x1="56.0968" y1="8.7749" x2="56.0968" y2="60.3071" gradientUnits="userSpaceOnUse">
<stop/>
<stop offset="1" stop-color="#0047FF"/>
</linearGradient>
<linearGradient id="paint7_linear" x1="56.0761" y1="43.7729" x2="56.0761" y2="60.3076" gradientUnits="userSpaceOnUse">
<stop/>
<stop offset="1" stop-color="#0047FF"/>
</linearGradient>
</defs>
</svg>

<svg width="112" height="112" viewBox="0 0 112 112" fill="none" xmlns="http://www.w3.org/2000/svg"><path d="M56.084 110.949c18.539 0 33.567-15.036 33.567-33.583 0-18.547-15.028-33.582-33.567-33.582S22.517 58.82 22.517 77.366s15.028 33.583 33.567 33.583z" fill="url(#a)" stroke="#fff" stroke-miterlimit="10" stroke-linecap="round" stroke-linejoin="round"/><path d="M111.193 34.54c0 15.014-9.802 27.65-23.335 32.001a33.921 33.921 0 0 1-10.25 1.6c-8.204 0-15.708-2.914-21.532-7.838a33.122 33.122 0 0 1-10.21-14.935c-1.19-3.404-1.803-7.058-1.803-10.833A33.55 33.55 0 0 1 56.08 8.771C61.903 3.93 69.407.976 77.61.976c18.53.003 33.582 15.022 33.582 33.563z" fill="url(#b)" stroke="#fff" stroke-miterlimit="10" stroke-linecap="round" stroke-linejoin="round"/><path d="M68.13 34.539c0 3.774-.613 7.425-1.803 10.832a33.426 33.426 0 0 1-10.251 14.936c-5.824 4.882-13.327 7.837-21.531 7.837-3.567 0-7.014-.532-10.21-1.6C10.802 62.236 1 49.562 1 34.544 1 15.997 16.008.983 34.545.983c8.2 0 15.707 2.954 21.531 7.795 7.38 6.152 12.055 15.423 12.055 25.761z" fill="url(#c)" stroke="#fff" stroke-miterlimit="10" stroke-linecap="round" stroke-linejoin="round"/><path d="M87.858 66.542a33.921 33.921 0 0 1-10.251 1.599c-8.204 0-15.708-2.913-21.531-7.837-5.824 4.882-13.328 7.837-21.531 7.837-3.567 0-7.014-.532-10.21-1.6a33.538 33.538 0 0 1 31.74-22.768 33.9 33.9 0 0 1 10.252 1.599c10.131 3.242 18.129 11.161 21.53 21.17z" fill="url(#d)" stroke="#fff" stroke-miterlimit="10" stroke-linecap="round" stroke-linejoin="round"/><path d="M111.193 34.54c0 15.014-9.802 27.65-23.335 32.001a33.921 33.921 0 0 1-10.25 1.6c-8.204 0-15.708-2.914-21.532-7.838a33.528 33.528 0 0 1-10.25-14.935 33.854 33.854 0 0 1-1.764-10.833A33.55 33.55 0 0 1 56.08 8.771C61.903 3.93 69.407.976 77.61.976c18.53.003 33.582 15.022 33.582 33.563z" fill="url(#e)" stroke="#fff" stroke-miterlimit="10" stroke-linecap="round" stroke-linejoin="round"/><path d="M87.858 66.542a33.921 33.921 0 0 1-10.25 1.599c-8.205 0-15.708-2.913-21.532-7.837a33.528 33.528 0 0 1-10.25-14.936 33.921 33.921 0 0 1 10.25-1.599c14.765.004 27.272 9.522 31.782 22.773z" fill="url(#f)" stroke="#fff" stroke-miterlimit="10" stroke-linecap="round" stroke-linejoin="round"/><path d="M68.131 34.54c0 3.773-.614 7.424-1.804 10.831a33.426 33.426 0 0 1-10.25 14.936 33.528 33.528 0 0 1-10.252-14.936 33.854 33.854 0 0 1-1.763-10.832A33.55 33.55 0 0 1 56.08 8.775C63.457 14.93 68.13 24.2 68.13 34.539z" fill="url(#g)" stroke="#fff" stroke-miterlimit="10" stroke-linecap="round" stroke-linejoin="round"/><path d="M66.327 45.372a33.426 33.426 0 0 1-10.25 14.936 33.528 33.528 0 0 1-10.252-14.936 33.717 33.717 0 0 1 10.251-1.6 33.9 33.9 0 0 1 10.251 1.6z" fill="url(#h)" stroke="#fff" stroke-miterlimit="10" stroke-linecap="round" stroke-linejoin="round"/><defs><linearGradient id="a" x1="56.084" y1="43.784" x2="56.084" y2="110.949" gradientUnits="userSpaceOnUse"><stop/><stop offset="1" stop-color="#0047FF"/></linearGradient><linearGradient id="b" x1="77.628" y1=".976" x2="77.628" y2="68.14" gradientUnits="userSpaceOnUse"><stop/><stop offset="1" stop-color="#0047FF"/></linearGradient><linearGradient id="c" x1="34.565" y1=".983" x2="34.565" y2="68.144" gradientUnits="userSpaceOnUse"><stop/><stop offset="1" stop-color="#0047FF"/></linearGradient><linearGradient id="d" x1="56.096" y1="43.773" x2="56.096" y2="68.141" gradientUnits="userSpaceOnUse"><stop/><stop offset="1" stop-color="#0047FF"/></linearGradient><linearGradient id="e" x1="77.628" y1=".976" x2="77.628" y2="68.14" gradientUnits="userSpaceOnUse"><stop/><stop offset="1" stop-color="#0047FF"/></linearGradient><linearGradient id="f" x1="66.842" y1="43.77" x2="66.842" y2="68.141" gradientUnits="userSpaceOnUse"><stop/><stop offset="1" stop-color="#0047FF"/></linearGradient><linearGradient id="g" x1="56.097" y1="8.775" x2="56.097" y2="60.307" gradientUnits="userSpaceOnUse"><stop/><stop offset="1" stop-color="#0047FF"/></linearGradient><linearGradient id="h" x1="56.076" y1="43.773" x2="56.076" y2="60.308" gradientUnits="userSpaceOnUse"><stop/><stop offset="1" stop-color="#0047FF"/></linearGradient></defs></svg>
